packages/kaspersky-hexa-ui-icons/src/iconsSVGs/32/Training.svg

<svg width="32" height="32" viewBox="0 0 32 32" fill="none" xmlns="http://www.w3.org/2000/svg">
<path fill-rule="evenodd" clip-rule="evenodd" d="M15.5528 4.10557C15.8343 3.96481 16.1657 3.96481 16.4472 4.10557L29.4282 10.5961C29.4948 10.6277 29.5574 10.6664 29.6149 10.7114C29.8375 10.8852 29.9846 11.1511 29.9988 11.4517C29.9996 11.4678 30 11.4838 30 11.5L30 11.5059V18C30 18.5523 29.5523 19 29 19C28.4477 19 28 18.5523 28 18V13.118L25 14.618V23C25 23.3788 24.786 23.725 24.4472 23.8944L16.4472 27.8944C16.1657 28.0352 15.8343 28.0352 15.5528 27.8944L7.55277 23.8944C7.21398 23.725 6.99998 23.3788 6.99998 23V14.618L2.55279 12.3944C2.214 12.225 2 11.8788 2 11.5C2 11.1212 2.214 10.775 2.55279 10.6056L15.5528 4.10557ZM16.4472 18.8944L23 15.618V22.382L16 25.882L8.99998 22.382V15.618L15.5528 18.8944C15.8343 19.0352 16.1657 19.0352 16.4472 18.8944ZM5.23607 11.5L16 16.882L26.7639 11.5L16 6.11803L5.23607 11.5Z" fill="black"/>
</svg>

<svg xmlns="http://www.w3.org/2000/svg" width="32" height="32" fill="none" viewBox="0 0 32 32"><path fill="#000" fill-rule="evenodd" d="M15.5528 4.1056a1 1 0 0 1 .8944 0l12.981 6.4905a1 1 0 0 1 .1867.1153A.998.998 0 0 1 30 11.5V18c0 .5523-.4477 1-1 1s-1-.4477-1-1v-4.882l-3 1.5V23a1 1 0 0 1-.5528.8944l-8 4a1 1 0 0 1-.8944 0l-8-4A1 1 0 0 1 7 23v-8.382l-4.4472-2.2236a1 1 0 0 1 0-1.7888zm.8944 14.7888L23 15.618v6.764l-7 3.5-7-3.5v-6.764l6.5528 3.2764a1 1 0 0 0 .8944 0M5.2361 11.5 16 16.882 26.7639 11.5 16 6.118z"/></svg>
